lib/preview/nrk-logo-preview-nrk-2-with-bg.svg

<svg width="59" height="24" viewBox="0 0 59 24" fill="none" xmlns="http://www.w3.org/2000/svg">
<rect width="59" height="24" fill="#78003D"/>
<path d="M6.00427 18V6.00109H9.94146V18H6.00427ZM15.2981 7.91078L17.5623 18H13.2534L10.5498 6.00109H12.9664C13.5206 5.9939 14.0583 6.18925 14.4788 6.55039C14.8999 6.89638 15.1892 7.3767 15.2981 7.91078ZM18.1538 18V6.00109H22.091V18H18.1538ZM25.0647 10.5641C24.6405 10.5682 24.223 10.4572 23.8568 10.243C23.4955 10.0341 23.1954 9.73396 22.9865 9.3726C22.7721 9.00633 22.661 8.58876 22.6652 8.16432C22.6604 7.74246 22.7715 7.32738 22.9865 6.96443C23.1976 6.60699 23.4974 6.31009 23.8568 6.10252C24.2231 5.8885 24.6405 5.77751 25.0647 5.78138C25.4865 5.77684 25.9014 5.88793 26.2645 6.10252C26.6203 6.31191 26.9169 6.60856 27.1263 6.96443C27.3411 7.32748 27.4522 7.74249 27.4476 8.16432C27.4515 8.58873 27.3405 9.00623 27.1263 9.3726C26.9191 9.73238 26.6222 10.0323 26.2645 10.243C25.9014 10.458 25.4862 10.5691 25.0642 10.5641H25.0647ZM28.0559 18V6.00109H31.9934V18H28.0559ZM36.978 12.5582C36.9891 12.5699 37.0735 12.7079 37.2314 12.9723C37.3893 13.2367 37.5949 13.5747 37.8482 13.9863C38.1017 14.3977 38.3692 14.8343 38.6506 15.296C38.932 15.7577 39.1969 16.1944 39.4451 16.6058C39.6924 17.0172 39.974 17.4819 40.29 18H35.9641C35.6936 17.5606 35.4484 17.1635 35.2287 16.8086C35.0091 16.4537 34.7756 16.0706 34.5281 15.6594C34.2801 15.2485 34.0349 14.8485 33.7925 14.4595C33.5501 14.0704 33.3418 13.7296 33.1675 13.4371C32.9925 13.1443 32.8713 12.9471 32.8039 12.8455C32.6368 12.5934 32.5379 12.3023 32.517 12.0005C32.5337 11.7109 32.6269 11.431 32.787 11.1891C32.8546 11.0764 32.9786 10.8764 33.1588 10.5891C33.339 10.3018 33.5503 9.96105 33.7925 9.56672C34.0347 9.17239 34.2799 8.7696 34.5281 8.35837C34.7763 7.94715 35.0098 7.56124 35.2287 7.20071C35.4488 6.84055 35.6939 6.44059 35.9641 6.00081H40.29L36.9439 11.4595C36.8404 11.6216 36.782 11.8083 36.7749 12.0005C36.786 12.2023 36.8565 12.3963 36.9774 12.5582H36.978Z" fill="white"/>
<path d="M47.1199 16.5485C47.3874 16.319 47.6625 16.0805 47.9531 15.822C48.3586 15.4615 48.7669 15.0701 49.1781 14.6477C49.5892 14.2253 49.9806 13.786 50.3523 13.3298C50.7133 12.8884 51.0436 12.4226 51.3407 11.9359C51.6181 11.4835 51.8448 11.0019 52.0166 10.4998C52.1762 10.0376 52.2589 9.5525 52.2616 9.06361C52.2697 8.60704 52.1774 8.15426 51.9912 7.73728C51.807 7.34346 51.5356 6.99678 51.1974 6.72353C50.8104 6.41699 50.3648 6.19275 49.888 6.06459C49.3019 5.90439 48.6961 5.8276 48.0886 5.83649C47.6949 5.83545 47.302 5.86937 46.9143 5.93786C46.5455 6.00306 46.1834 6.10203 45.8327 6.23354C45.4984 6.35883 45.1738 6.50849 44.8615 6.68129L45.0808 8.15122C45.3485 7.97185 45.6346 7.82175 45.9344 7.70349C46.2599 7.57283 46.5963 7.47106 46.9396 7.39936C47.2896 7.32604 47.6463 7.28923 48.0038 7.28953C48.3785 7.28191 48.752 7.33323 49.1108 7.4416C49.3964 7.52904 49.6589 7.67912 49.8792 7.8809C50.0778 8.066 50.231 8.29437 50.327 8.54828C50.4254 8.81601 50.4741 9.09941 50.4709 9.38462C50.4651 9.86334 50.3676 10.3365 50.1837 10.7785C49.9699 11.2977 49.6978 11.7908 49.3727 12.2485C48.994 12.7862 48.582 13.2997 48.1393 13.786C47.6662 14.3098 47.1508 14.8335 46.5933 15.3573C46.0357 15.8811 45.4584 16.4133 44.8615 16.954L45.0808 18.0015H52.397L52.5998 16.5485H47.1199Z" fill="#FDAFD7"/>
</svg>

<svg xmlns="http://www.w3.org/2000/svg" viewBox="0 0 59 24"><path fill="#78003D" d="M0 0h59v24H0z"/><path fill="#fff" d="M6.004 18V6.001h3.937V18H6.004Zm9.294-10.09L17.562 18h-4.309L10.55 6.001h2.416a2.276 2.276 0 0 1 1.513.55c.42.345.71.826.82 1.36ZM18.154 18V6.001h3.937V18h-3.937Zm6.91-7.436a2.383 2.383 0 0 1-2.4-2.4 2.303 2.303 0 0 1 .323-1.2 2.411 2.411 0 0 1 3.278-.861c.355.209.652.506.861.861.215.363.326.778.322 1.2a2.4 2.4 0 0 1-1.183 2.079 2.302 2.302 0 0 1-1.2.321ZM28.057 18V6.001h3.937V18h-3.937Zm8.922-5.442c.011.012.096.15.253.414.158.265.364.603.617 1.014a315.936 315.936 0 0 1 1.597 2.62c.247.411.529.876.845 1.394h-4.326c-.27-.44-.516-.837-.735-1.191-.22-.355-.453-.738-.7-1.15-.249-.41-.494-.81-.737-1.2-.242-.389-.45-.73-.625-1.022-.175-.293-.296-.49-.363-.591a1.748 1.748 0 0 1-.287-.845c.017-.29.11-.57.27-.812.068-.113.192-.313.372-.6s.391-.628.633-1.022c.243-.395.488-.797.736-1.209l.7-1.157.736-1.2h4.326l-3.346 5.458a1.08 1.08 0 0 0-.17.542c.012.201.082.395.203.557h.001Z"/><path fill="#FDAFD7" d="M47.12 16.549c.267-.23.543-.468.833-.727.406-.36.814-.752 1.225-1.174a20.02 20.02 0 0 0 1.174-1.318c.361-.442.692-.907.989-1.394.277-.453.504-.934.676-1.436.16-.462.242-.947.245-1.436a3.117 3.117 0 0 0-.27-1.327 2.862 2.862 0 0 0-.795-1.013 3.624 3.624 0 0 0-1.309-.66 6.466 6.466 0 0 0-1.8-.228 6.649 6.649 0 0 0-1.174.102 6.11 6.11 0 0 0-1.081.296 7.291 7.291 0 0 0-.971.447l.219 1.47a4.5 4.5 0 0 1 .853-.448A5.98 5.98 0 0 1 46.94 7.4a5.17 5.17 0 0 1 1.064-.11c.375-.007.748.044 1.107.153.285.087.548.237.768.439.199.185.352.413.448.667.098.268.147.551.144.837a3.747 3.747 0 0 1-.287 1.393 7.412 7.412 0 0 1-.811 1.47c-.379.538-.791 1.052-1.234 1.538a26.923 26.923 0 0 1-1.546 1.571c-.557.524-1.135 1.056-1.732 1.597l.22 1.047h7.316l.203-1.453h-5.48Z"/></svg>
